X:318
T:The boys from the County Armagh
Z: posted by Tina Carlsen 2/01
R:waltz
M:3/4
K:D
F4 G2| A6| B4 c2| d6| f4 g2| a6| g4 f2| B6| B6 |A6| c4 d2|f2 e4| e2 c2 B2|
A6| d4 e2| f6| f2 d2 B2| A6| d4 e2| f6| f4 g2| a6| g4 f2| B6| B6| A6| c4
d2| f4 e2| e2 c2 B2| A4 g2| f4 e2| d6:|
